X:1
T:The King, O Lord, with songs of praise
T:Joseph Stephenson
T:Text: Tate/Brady, on Ps. 21.
T:This edition by Edmund Gooch released into the public domain, November 2010. As such, it may be freely copied and performed.
T:The King, O Lord, with songs of praise
T:Ps. 21st.
T:Copyright © 
T:Copyright © 
C:Joseph Stephenson
Z:Text: Tate/Brady, on Ps. 21.
Z:Copyright ©
%%score [ 1 2 3 4 ]
L:1/8
M:2/2
K:C
V:1 treble nm="SOPRANO" snm="S."
V:2 treble nm="ALTO" snm="A."
V:3 treble-8 transpose=-12 nm="TENOR" snm="T."
V:4 bass nm="BASS" snm="B."
V:1
 A4 | A2 ^G2 A2 B2 | (c3 d e2 d2 | c3 d e3 d | c4) d4 | e8 | c4 B2 A2 | T^G6 A2 | A8 |: %9
w: Thy|good- ness and thy|ten- * * *||* der|care|Have all his|hopes out-|gone:|
w: The|King, O Lord, with|songs _ _ _|_ _ _ _|* of|praise,|Shall in thy|strength re-|joice;|
w: For|thou, what- e’er his|lips _ _ _|_ _ _ _|* re-|quest,|Not on- ly|didst im-|part,|
 A4 (Bc) d2 | e2 e2 (c3 d | e3 d c2) B2 | B6 z2 | z8 | z4 z2 c2 | (e3 ^d e2) e2 | c2 c2 e2 e2 | %17
w: A crown _ of|gold thou mad’st _|_ _ _ him|wear,||And|sett’st _ _ it|firm- ly, firm- ly|
w: With thy _ sal-|va- tion crown’d, _|_ _ _ shall|raise||To|heav’n _ _ his|cheer- ful, cheer- ful|
w: But hast _ with|thy ac- cep- *|* * * tance|blest||The|wish- * * es,|wish- es of his|
 c2 c2 c2 A2 | T^G6 A2 | A8 :| %20
w: on, and sett’st it|firm- ly|on.|
w: voice, to heav’n his|cheer- ful|voice.|
w: heart, the wish- es|of his|heart.|
V:2
 E4 | E2 E2 E2 G2 | (G8 | E8- | E4) G4 | G8 | G4 G2 E2 | E6 E2 | E8 |: E4 G2 G2 | G2 G2 (E4 | %11
w: Thy|good- ness and thy|ten-||* der|care|Have all his|hopes out-|gone:|A crown of|gold thou mad’st|
w: The|King, O Lord, with|songs|_|* of|praise,|Shall in thy|strength re-|joice;|With thy sal-|va- tion crown’d,|
w: For|thou, what- e’er his|lips|_|* re-|quest,|Not on- ly|didst im-|part,|But hast with|thy ac- cep-|
 A6) ^F2 | ^G6 z2 | z8 | z8 | z4 z2 E2 | (A3 ^G A2) A2 | F2 F2 A2 A2 | E6 E2 | E8 :| %20
w: _ him|wear,|||And|sett’st _ _ it|firm- ly, firm- ly,|firm- ly|on.|
w: _ shall|raise|||To|heav’n _ _ his|cheer- ful, cheer- ful,|cheer- ful|voice.|
w: * tance|blest|||The|wish- * * es,|wish- es, wish- es|of his|heart.|
V:3
 A4 | c2 B2 c2 d2 | (e3 d c2 B2 | c3 B A2 ^G2 | A4) B4 | c8 | e4 d2 c2 | B6 A2 | A8 |: c4 e2 B2 | %10
w: Thy|good- ness and thy|ten- * * *||* der|care|Have all his|hopes out-|gone:|A crown of|
w: The|King, O Lord, with|songs _ _ _|_ _ _ _|* of|praise,|Shall in thy|strength re-|joice;|With thy sal-|
w: For|thou, what- e’er his|lips _ _ _|_ _ _ _|* re-|quest,|Not on- ly|didst im-|part,|But hast with|
 c2 c2 (e3 d | c3 d e2) ^d2 | e6 z2 | z4 z2 A2 | (c3 B c2) c2 | A2 A2 c2 c2 | e2 e2 c4- | %17
w: gold thou mad’st _|_ _ _ him|wear,|And|sett’st _ _ it|firm- ly, firm- ly,|firm- ly on,|
w: va- tion crown’d, _|_ _ _ shall|raise|To|heav’n _ _ his|cheer- ful, cheer- ful,|cheer- ful voice,|
w: thy ac- cep- *|* * * tance|blest|The|wish- * * es,|wish- es, wish- es|of his heart,|
 c2 (cd) e2 (ed) | TB6 A2 | A8 :| %20
w: _ and _ sett’st it _|firm- ly|on.|
w: _ to _ heav’n his _|cheer- ful|voice.|
w: _ the _ wish- es _|of his|heart.|
V:4
 A,4 | A,2 E,2 A,2 G,2 | (C3 B, A,2 ^G,2 | A,3 G, F,2 E,2 | A,4) G,4 | C,8 | C,4 G,2 A,2 | %7
w: Thy|good- ness and thy|ten- * * *||* der|care|Have all his|
w: The|King, O Lord, with|songs _ _ _|_ _ _ _|* of|praise,|Shall in thy|
w: For|thou, what- e’er his|lips _ _ _|_ _ _ _|* re-|quest,|Not on- ly|
 E,6 E,2 | A,,8 |: A,4 E,2 G,2 | C,2 C,2 (C3 B, | A,3 B, A,2) B,2 | E,6 E,2 | (A,3 ^G, A,2) A,2 | %14
w: hopes out-|gone:|A crown of|gold thou mad’st _|_ _ _ him|wear, And|sett’st _ _ it|
w: strength re-|joice;|With thy sal-|va- tion crown’d, _|_ _ _ shall|raise To|heav’n _ _ his|
w: didst im-|part,|But hast with|thy ac- cep- *|* * * tance|blest The|wish- * * es,|
"^Emendations:The order of staves in the source is the same as in this edition: while no indication of which part is the treble and whichis the tenor in this piece, the first piece in the book starts with a 'Treble solo', which is printed on the first stave of thefour-stave system, all other staves having rests printed.The counter part is notated in the alto clef in the source. Fragments of the first verse only are given in the source:verses 2 and 3 have been added editorially." F,2 F,2 A,2 A,2 | %15
w: firm- ly, firm- ly,|
w: cheer- ful, cheer- ful,|
w: wish- es, wish- es|
 C2 C2 A,4- | A,6 (A,B,) | C2 (CB,) A,2 D,2 | E,6 E,2 | A,,8 :| %20
w: firm- ly on,|_ and _|sett’st it _ firm- ly,|firm- ly|on.|
w: cheer- ful voice,|_ to _|heav’n his _ cheer- ful,|cheer- ful|voice.|
w: of his heart,|_ the _|wish- es, _ wish- es|of his|heart.|

